icons/src/fluent/svg/presenter_24_filled.svg

<svg width="24" height="24" viewBox="0 0 24 24" fill="none" xmlns="http://www.w3.org/2000/svg">
<path d="M20.2449 12.9966C20.9537 12.9966 21.267 13.889 20.7137 14.3321L15.9958 18.1098V19.7541C15.9958 20.9968 14.9884 22.0041 13.7458 22.0041H10.2504C9.0078 22.0041 8.00044 20.9968 8.00044 19.7541V18.1099L3.28085 14.3322C2.72744 13.8892 3.04067 12.9966 3.74953 12.9966H20.2449ZM8.75044 8.99954H15.2451C16.1633 8.99954 16.9163 9.70665 16.9893 10.606L16.9951 10.7495V11.9995H7.00044V10.7495C7.00044 9.83137 7.70755 9.07835 8.60691 9.00534L8.75044 8.99954H15.2451H8.75044ZM12.0004 2C13.6573 2 15.0004 3.34315 15.0004 5C15.0004 6.65685 13.6573 8 12.0004 8C10.3436 8 9.00044 6.65685 9.00044 5C9.00044 3.34315 10.3436 2 12.0004 2Z" fill="#212121"/>
</svg>

<svg width="24" height="24" fill="none" viewBox="0 0 24 24" xmlns="http://www.w3.org/2000/svg"><path d="M20.244 12.997c.71 0 1.023.893.47 1.336l-4.719 3.777v1.645a2.25 2.25 0 0 1-2.25 2.25H10.25A2.25 2.25 0 0 1 8 19.755V18.11l-4.72-3.777c-.553-.443-.24-1.336.469-1.336h16.495ZM8.75 9h6.495a1.75 1.75 0 0 1 1.744 1.607l.006.143V12H7v-1.25a1.75 1.75 0 0 1 1.606-1.744L8.75 9h6.495H8.75ZM12 2a3 3 0 1 1 0 6 3 3 0 0 1 0-6Z" fill="#212121"/></svg>
